static/fa/svgs/solid/lira-sign.svg

<svg xmlns="http://www.w3.org/2000/svg" viewBox="0 0 320 512"><!--! Font Awesome Free 6.1.1 by @fontawesome - https://fontawesome.com License - https://fontawesome.com/license/free (Icons: CC BY 4.0, Fonts: SIL OFL 1.1, Code: MIT License) Copyright 2022 Fonticons, Inc.--><path d="M111.1 191.1H224c17.7 0 32 15.2 32 32 0 18.6-14.3 32-32 32H111.1v32H224c17.7 0 32 15.2 32 32 0 18.6-14.3 32.9-32 32.9H110.8c-2.7 22.2-10 43.6-21.6 62.9l-.68 1.1H288c17.7 0 32 14.3 32 32s-14.3 32-32 32H32c-11.53 0-22.166-6.2-27.846-16.2-5.681-10.1-5.525-22.4.406-32.3l29.76-49.6c5.57-9.3 9.51-19.4 11.69-29.9H32c-17.67 0-32-14.3-32-32s14.33-32 32-32h16v-32H32c-17.67 0-32-14.3-32-32s14.33-32 32-32h16v-31.6C48 89.47 105.5 32 176.4 32c13.8 0 27.5 2.22 39.7 6.59l82 27.05c16.8 5.59 25.8 23.71 20.3 40.46-5.6 16.8-23.8 25.8-40.5 20.3l-81.2-27.1c-6.5-2.18-13.4-3.3-20.3-3.3-35.6 0-64.4 28.8-64.4 64.4l-.9 30.7z"/></svg>

<svg xmlns="http://www.w3.org/2000/svg" viewBox="0 0 320 512"><!--! Font Awesome Free 6.1.1 by @fontawesome - https://fontawesome.com License - https://fontawesome.com/license/free (Icons: CC BY 4.0, Fonts: SIL OFL 1.1, Code: MIT License) Copyright 2022 Fonticons, Inc. --><path d="M111.1 191.1H224C241.7 191.1 256 206.3 256 223.1C256 241.7 241.7 255.1 224 255.1H111.1V287.1H224C241.7 287.1 256 302.3 256 319.1C256 337.7 241.7 352 224 352H110.8C108.1 374.2 100.8 395.6 89.2 414.9L88.52 416H288C305.7 416 320 430.3 320 448C320 465.7 305.7 480 288 480H32C20.47 480 9.834 473.8 4.154 463.8C-1.527 453.7-1.371 441.4 4.56 431.5L34.32 381.9C39.89 372.6 43.83 362.5 46.01 352H32C14.33 352 0 337.7 0 320C0 302.3 14.33 288 32 288H48V256H32C14.33 256 0 241.7 0 224C0 206.3 14.33 192 32 192H48V160.4C48 89.47 105.5 32 176.4 32C190.2 32 203.9 34.22 216.1 38.59L298.1 65.64C314.9 71.23 323.9 89.35 318.4 106.1C312.8 122.9 294.6 131.9 277.9 126.4L196.7 99.3C190.2 97.12 183.3 96 176.4 96C140.8 96 112 124.8 112 160.4L111.1 191.1z"/></svg>
